X:465
T: Ballydesmond #2
S: "Johnny O'Leary of Sliabh Luachra" (#58)
Z: B.Black
L: 1/8
M: 2/4
Q: 290
R: polka
K: Ador
EA AB|c^c/d/ eg|G2 GA|GE ED|
EA/G/ AB|c^c/d/ ef|ge d(3B/c/B/|\
A2 A2 :|
a2 ab/a/|ag ef|gf ga|ge df/d/|
ea ag|ag ef|ge dB|A2 A2 :|
